src/pos-icons/unfold-more-horizontal.svg

<svg height="24" viewBox="0 0 24 24" width="24" xmlns="http://www.w3.org/2000/svg"><path d="m12 18.17-3.17-3.17-1.41 1.41 4.58 4.59 4.59-4.59-1.42-1.41m-3.17-9.17 3.17 3.17 1.41-1.41-4.58-4.59-4.59 4.59 1.42 1.41z"/></svg>

<?xml version="1.0" encoding="UTF-8"?><!DOCTYPE svg PUBLIC "-//W3C//DTD SVG 1.1//EN" "http://www.w3.org/Graphics/SVG/1.1/DTD/svg11.dtd"><svg xmlns="http://www.w3.org/2000/svg" xmlns:xlink="http://www.w3.org/1999/xlink" version="1.1" id="mdi-unfold-more-horizontal" width="24" height="24" viewBox="0 0 24 24"><path d="M12,18.17L8.83,15L7.42,16.41L12,21L16.59,16.41L15.17,15M12,5.83L15.17,9L16.58,7.59L12,3L7.41,7.59L8.83,9L12,5.83Z" /></svg>
